src/images/icons/icon-wineglass.svg

<svg width="48" height="52" viewBox="0 0 48 52" fill="none" xmlns="http://www.w3.org/2000/svg">
<path fill-rule="evenodd" clip-rule="evenodd" d="M28.3931 8.66671C29.0171 3.71939 33.1968 0.00824107 38.1541 0C43.5918 0 48 4.43463 48 9.90484C48 15.3751 43.5918 19.8096 38.1541 19.8096C36.1528 19.8105 34.1997 19.1915 32.5603 18.0366L20.9237 31.0923V49.5238H28.3081V52H11.0777V49.5237H18.4622V31.0934L0.314879 10.7317C0.111921 10.5043 -0.000230409 10.2093 0 9.90368C0.000461885 9.2199 0.55199 8.66612 1.23171 8.66671H28.3931ZM9.45305 17.2751L19.6929 28.7634L29.9302 17.2751H9.45305ZM32.0004 14.945V14.7989H7.24636L3.98854 11.1429H29.5388H35.3947L32.0004 14.945ZM34.2157 16.1819C35.3924 16.9359 36.759 17.3354 38.1541 17.3333C41.7571 17.3328 44.8337 14.7167 45.4341 11.1429C46.1138 7.09754 43.405 3.26393 39.3837 2.58015C35.3624 1.89637 31.5514 4.62138 30.8717 8.66671H38.1541C38.4603 8.66554 38.7559 8.77929 38.9832 8.98567C39.4879 9.4438 39.5277 10.2267 39.0723 10.7343L34.2157 16.1819Z" fill="#EF633E"/>
</svg>

<svg width="48" height="52" fill="none" xmlns="http://www.w3.org/2000/svg"><path fill-rule="evenodd" clip-rule="evenodd" d="M28.393 8.667C29.017 3.719 33.197.008 38.154 0 43.592 0 48 4.435 48 9.905s-4.408 9.905-9.846 9.905a9.704 9.704 0 01-5.594-1.773L20.924 31.092v18.432h7.384V52h-17.23v-2.476h7.384v-18.43L.315 10.731A1.242 1.242 0 010 9.904c0-.684.552-1.238 1.232-1.237h27.161zm-18.94 8.608l10.24 11.488L29.93 17.275H9.453zM32 14.945v-.146H7.246L3.99 11.143h31.406L32 14.945zm2.216 1.237a7.279 7.279 0 003.938 1.151c3.603 0 6.68-2.616 7.28-6.19.68-4.045-2.029-7.88-6.05-8.563-4.022-.684-7.833 2.041-8.512 6.087h7.282c.306-.001.602.112.83.319.504.458.544 1.24.088 1.748l-4.856 5.448z" fill="#EF633E"/></svg>
